svgs/sharp-regular/album-collection-circle-plus.svg

<svg xmlns="http://www.w3.org/2000/svg" viewBox="0 0 640 512"><!--! Font Awesome Pro 6.6.0 by @fontawesome - https://fontawesome.com License - https://fontawesome.com/license (Commercial License) Copyright 2024 Fonticons, Inc. --><path d="M32 0l0 48 24 0 400 0 24 0 0-48L456 0 56 0 32 0zM320 368c0-40.2 13.4-77.2 36.1-106.8C330.2 243.1 294.9 232 256 232c-79.5 0-144 46.6-144 104s64.5 104 144 104c26.9 0 52-5.3 73.6-14.6c-6.2-18-9.6-37.3-9.6-57.4zM53.8 208l368.8 0c22.3-10.3 47.2-16 73.4-16c4.1 0 8.2 .1 12.3 .4L512 160l-48.3 0L48.3 160 0 160l5.5 48L40 512l354.8 0c-18.3-12.9-34.1-29.2-46.3-48L82.9 464 53.8 208zM40 80L16 80l0 48 24 0 432 0 24 0 0-48-24 0L40 80zM256 368c-17.7 0-32-10.7-32-24s14.3-24 32-24s32 10.7 32 24s-14.3 24-32 24zM496 512a144 144 0 1 0 0-288 144 144 0 1 0 0 288zm16-208l0 48 48 0 16 0 0 32-16 0-48 0 0 48 0 16-32 0 0-16 0-48-48 0-16 0 0-32 16 0 48 0 0-48 0-16 32 0 0 16z"/></svg>

<svg xmlns="http://www.w3.org/2000/svg" viewBox="0 0 640 512"><!--! Font Awesome Pro 6.4.2 by @fontawesome - https://fontawesome.com License - https://fontawesome.com/license (Commercial License) Copyright 2023 Fonticons, Inc. --><path d="M32 0V48H56 456h24V0H456 56 32zM320 368c0-40.2 13.4-77.2 36.1-106.8C330.2 243.1 294.9 232 256 232c-79.5 0-144 46.6-144 104s64.5 104 144 104c26.9 0 52-5.3 73.6-14.6c-6.2-18-9.6-37.3-9.6-57.4zM53.8 208H422.6c22.3-10.3 47.2-16 73.4-16c4.1 0 8.2 .1 12.3 .4L512 160H463.7 48.3 0l5.5 48L40 512H394.8c-18.3-12.9-34.1-29.2-46.3-48H82.9L53.8 208zM40 80H16v48H40 472h24V80H472 40zM256 368c-17.7 0-32-10.7-32-24s14.3-24 32-24s32 10.7 32 24s-14.3 24-32 24zM496 512a144 144 0 1 0 0-288 144 144 0 1 0 0 288zm16-208v48h48 16v32H560 512v48 16H480V432 384H432 416V352h16 48V304 288h32v16z"/></svg>
